<?xml version="1.0" encoding="UTF-8"?>
<map version="1.10" tiledversion="1.12.2" orientation="orthogonal" renderorder="left-down" width="11" height="33" tilewidth="16" tileheight="16" infinite="0" nextlayerid="14" nextobjectid="1">
 <editorsettings>
  <export target="map_10.json" format="json"/>
 </editorsettings>
 <tileset firstgid="1" source="bkgs.tsx"/>
 <tileset firstgid="19" source="gates.tsx"/>
 <tileset firstgid="37" source="walls.tsx"/>
 <tileset firstgid="91" source="enemies.tsx"/>
 <tileset firstgid="115" source="items.tsx"/>
 <layer id="12" name="bkgs" width="11" height="33">
  <data encoding="csv">
0,0,0,0,0,0,0,0,0,0,0,
0,0,0,0,0,0,0,0,0,0,0,
0,0,0,0,0,0,0,0,0,0,0,
0,0,0,0,0,0,0,0,0,0,0,
0,0,0,0,0,0,0,0,0,0,0,
0,0,0,0,0,0,0,0,0,0,0,
0,0,0,0,0,0,0,0,0,0,0,
0,0,0,0,0,0,0,0,0,0,0,
0,0,0,0,0,0,0,0,0,0,0,
0,0,0,0,0,0,0,0,0,0,0,
0,0,0,0,0,0,0,0,0,0,0,
0,0,0,0,0,0,0,0,0,0,0,
0,0,0,0,0,0,0,0,0,0,0,
0,0,0,0,0,0,0,0,0,0,0,
0,0,0,0,0,0,0,0,0,0,0,
0,0,0,0,0,0,0,0,0,0,0,
0,0,0,0,0,0,0,0,0,0,0,
0,0,0,0,0,0,0,0,0,0,0,
0,0,0,0,0,0,0,0,0,0,0,
0,0,0,0,0,0,0,0,0,0,0,
0,0,0,0,0,0,0,0,0,0,0,
0,0,0,0,0,0,0,0,0,0,0,
0,0,0,0,0,0,0,0,0,0,0,
0,0,0,0,0,0,0,0,0,0,0,
0,0,0,0,0,0,0,0,0,0,0,
0,0,0,0,0,0,0,0,0,0,0,
0,0,0,0,0,0,0,0,0,0,0,
0,0,0,0,0,0,0,0,0,0,0,
0,0,0,0,0,0,0,0,0,0,0,
0,0,0,0,0,0,0,0,0,0,0,
0,0,0,0,0,0,0,0,0,0,0,
0,0,0,0,0,0,0,0,0,0,0,
0,0,0,0,0,0,0,0,0,0,0
</data>
 </layer>
 <layer id="13" name="gates" width="11" height="33">
  <data encoding="csv">
0,0,0,0,0,0,0,0,0,0,0,
0,0,0,0,0,0,0,0,0,0,0,
0,0,0,0,0,0,0,0,0,0,0,
0,0,0,0,0,0,0,0,0,0,0,
0,0,0,0,0,0,0,0,0,0,0,
0,0,0,0,0,0,0,0,0,0,0,
0,0,0,0,0,0,0,0,0,0,0,
0,0,0,0,0,0,0,0,0,0,0,
0,0,0,0,0,0,0,0,0,0,0,
0,0,0,0,0,0,0,0,0,0,0,
0,0,0,0,0,0,0,0,0,0,0,
0,0,0,0,0,0,0,0,0,0,0,
0,0,0,0,0,0,0,0,0,0,0,
0,0,0,0,0,0,0,0,0,0,0,
0,0,0,0,0,0,0,0,0,0,0,
0,0,0,0,0,0,0,0,0,0,0,
0,0,0,0,0,0,0,0,0,0,0,
0,0,0,0,0,0,0,0,0,0,0,
0,0,0,0,0,0,0,0,0,0,0,
0,0,0,0,0,0,0,0,0,0,0,
0,0,0,0,0,0,0,0,0,0,0,
0,0,0,0,0,0,0,0,0,0,0,
0,0,0,0,0,0,0,0,0,0,0,
0,0,0,0,0,0,0,0,0,0,0,
0,0,0,20,0,0,0,21,0,0,0,
0,0,0,0,0,0,0,0,0,0,0,
0,0,0,0,0,0,0,0,0,0,0,
0,0,0,0,0,0,0,0,0,0,0,
0,0,0,0,0,0,0,0,0,0,0,
0,0,0,0,0,0,0,0,0,0,0,
0,0,0,0,0,0,0,0,0,0,0,
0,0,0,0,0,0,0,0,0,0,0,
0,0,0,0,0,0,0,0,0,0,0
</data>
 </layer>
 <layer id="1" name="walls" width="11" height="33">
  <data encoding="csv">
0,0,0,0,0,0,0,0,0,0,0,
0,44,0,41,0,0,0,44,56,0,44,
0,48,0,0,0,56,0,0,0,0,0,
56,0,0,48,0,0,0,44,48,48,0,
0,0,56,0,0,0,0,0,0,0,57,
43,72,71,71,68,69,69,68,75,45,0,
0,73,0,0,0,0,0,0,69,75,0,
0,73,0,0,85,0,0,0,0,76,0,
44,73,0,86,84,86,0,87,0,76,46,
0,73,0,0,0,0,0,0,0,76,46,
0,74,68,68,68,70,0,70,68,77,0,
53,0,57,46,0,57,0,0,0,47,0,
0,57,0,0,0,0,0,46,0,0,0,
0,0,0,0,47,57,47,57,0,0,0,
0,47,0,0,0,47,0,0,0,47,52,
0,0,57,0,0,0,0,0,57,0,0,
0,47,57,57,0,0,0,47,0,57,0,
47,0,0,0,0,47,0,0,0,0,47,
47,0,47,47,0,57,0,47,47,0,47,
47,0,0,0,0,47,0,0,0,0,47,
47,47,0,47,47,0,47,47,0,47,0,
0,47,0,0,0,0,0,0,0,47,0,
0,47,0,0,0,0,0,0,0,47,0,
0,47,0,0,0,0,0,0,0,47,0,
0,47,0,0,47,0,47,0,0,47,0,
0,0,47,47,0,0,0,47,47,0,0,
0,0,0,0,0,0,0,0,0,0,0,
0,47,47,47,0,47,47,47,0,47,0,
0,47,0,0,0,47,0,47,0,47,0,
0,47,0,0,0,47,0,47,0,47,0,
0,47,0,47,0,47,0,47,0,0,0,
0,47,47,47,0,47,47,47,0,47,0,
0,0,0,0,0,0,0,0,0,0,0
</data>
 </layer>
 <layer id="10" name="enemies" width="11" height="33">
  <data encoding="csv">
0,0,0,0,0,0,0,0,0,0,0,
0,0,0,0,0,0,0,0,0,0,0,
0,0,0,0,0,0,0,0,0,0,0,
0,0,0,0,0,0,0,0,0,0,0,
0,0,0,0,0,0,0,0,0,0,0,
0,0,0,0,0,0,0,0,0,0,0,
0,0,0,0,0,0,0,0,0,0,93,
0,0,0,100,0,0,0,0,0,0,0,
0,0,0,0,0,0,0,0,0,0,0,
0,0,0,0,0,0,0,0,0,0,0,
0,0,0,0,0,0,0,0,0,0,0,
0,0,0,0,94,0,0,0,0,0,0,
0,0,0,0,0,0,0,0,0,92,0,
0,0,0,0,0,0,0,0,0,0,0,
0,0,0,0,0,0,0,0,0,0,0,
0,0,0,0,0,92,0,0,0,0,0,
0,0,0,0,0,0,0,0,0,0,0,
0,0,0,0,0,0,0,0,0,0,0,
0,0,0,0,0,0,0,0,0,0,0,
0,0,0,0,0,0,0,0,0,0,0,
0,0,0,0,0,0,0,0,0,0,0,
0,0,0,0,0,0,0,0,0,0,0,
0,0,0,0,0,92,0,0,0,0,0,
0,0,0,0,0,0,0,0,0,0,0,
0,0,0,0,0,0,0,0,0,0,0,
0,0,0,0,0,99,0,0,0,0,0,
0,0,0,0,0,0,0,0,0,0,0,
0,0,0,0,0,0,0,0,0,0,0,
0,0,0,0,0,0,0,0,0,0,0,
0,0,0,0,0,0,0,0,0,0,0,
0,0,0,0,0,0,0,0,0,0,0,
0,0,0,0,0,0,0,0,0,0,0,
0,0,0,0,0,0,0,0,0,0,0
</data>
 </layer>
 <layer id="11" name="items" width="11" height="33">
  <data encoding="csv">
0,0,0,0,0,0,0,0,0,0,0,
0,0,0,0,0,0,0,0,0,0,0,
0,0,0,0,0,0,0,0,0,0,0,
0,0,0,0,0,0,0,0,0,0,0,
0,0,0,0,0,0,0,0,0,0,0,
0,0,0,0,0,0,0,0,0,0,0,
0,0,116,116,116,116,116,116,0,0,0,
0,0,116,0,0,0,116,116,116,0,0,
0,0,116,0,0,0,116,0,116,0,0,
0,0,116,116,116,116,116,116,116,0,0,
0,0,0,0,0,0,116,0,0,0,0,
0,0,0,0,0,0,116,116,116,0,0,
0,0,116,116,116,116,116,0,116,0,0,
0,0,116,0,0,0,0,0,116,0,0,
0,0,116,116,116,0,116,116,116,0,0,
0,0,0,0,116,0,116,0,0,0,0,
0,0,0,0,116,0,116,0,0,0,0,
0,116,116,116,116,0,116,116,116,116,0,
0,116,0,0,116,0,116,0,0,116,0,
0,116,116,116,116,0,116,116,116,116,0,
0,0,116,0,0,0,0,0,116,0,0,
0,0,116,0,0,0,0,0,116,0,0,
0,0,116,0,0,0,0,0,116,0,0,
0,0,116,0,0,0,0,0,116,0,0,
0,0,116,0,0,0,0,0,116,0,0,
0,0,0,0,0,0,0,0,0,0,0,
0,0,0,0,0,0,0,0,0,0,0,
0,0,0,0,0,0,0,0,0,0,0,
0,0,0,0,0,0,0,0,0,0,0,
0,0,0,0,0,0,0,0,0,0,0,
0,0,0,0,0,0,0,0,0,0,0,
0,0,0,0,0,0,0,0,0,0,0,
0,0,0,0,0,0,0,0,0,0,0
</data>
 </layer>
</map>
