<?xml version="1.0" encoding="UTF-8"?>
<map version="1.10" tiledversion="1.12.2" orientation="orthogonal" renderorder="left-down" width="11" height="17" tilewidth="16" tileheight="16" infinite="0" nextlayerid="14" nextobjectid="1">
 <editorsettings>
  <export target="map_99.json" format="json"/>
 </editorsettings>
 <tileset firstgid="1" source="bkgs.tsx"/>
 <tileset firstgid="19" source="gates.tsx"/>
 <tileset firstgid="37" source="walls.tsx"/>
 <tileset firstgid="85" source="enemies.tsx"/>
 <tileset firstgid="109" source="items.tsx"/>
 <layer id="12" name="bkgs" width="11" height="17">
  <data encoding="csv">
0,0,0,0,0,0,0,0,0,0,0,
0,0,0,0,0,0,0,0,0,0,0,
0,0,0,0,0,0,0,0,0,0,0,
0,0,0,0,0,0,0,0,0,0,0,
0,0,0,0,0,0,0,0,0,0,0,
0,0,0,0,0,0,0,0,0,0,0,
0,0,0,0,0,0,0,0,0,0,0,
0,0,0,0,0,0,0,0,0,0,0,
0,0,0,0,0,0,0,0,0,0,0,
0,0,0,0,0,0,0,0,0,0,0,
0,0,0,0,0,0,0,0,0,0,0,
0,0,0,0,0,0,0,0,0,0,0,
0,0,0,0,0,0,0,0,0,0,0,
0,0,0,0,0,0,0,0,0,0,0,
0,0,0,0,0,0,0,0,0,0,0,
0,0,0,0,0,0,0,0,0,0,0,
0,0,0,0,0,0,0,0,0,0,0
</data>
 </layer>
 <layer id="13" name="gates" width="11" height="17">
  <data encoding="csv">
0,0,0,0,0,0,0,0,0,0,0,
0,0,0,0,0,0,0,0,0,0,0,
0,0,0,0,0,0,0,0,0,0,0,
0,0,0,0,0,0,0,0,0,0,0,
0,0,0,0,0,0,0,0,0,0,0,
0,0,0,0,0,0,0,0,0,0,0,
0,0,0,0,0,0,0,0,0,0,0,
0,0,0,0,0,0,0,0,0,0,0,
0,0,0,0,0,20,0,0,0,0,0,
0,0,0,0,0,0,0,0,0,0,0,
0,0,0,0,0,0,0,0,0,0,0,
0,0,0,0,0,0,0,0,0,0,0,
0,0,0,0,0,0,0,0,0,0,0,
0,0,0,0,0,0,0,0,0,0,0,
0,0,0,0,0,0,0,0,0,0,0,
0,0,0,0,0,0,0,0,0,0,0,
0,0,0,0,0,0,0,0,0,0,0
</data>
 </layer>
 <layer id="1" name="walls" width="11" height="17">
  <data encoding="csv">
0,0,0,0,0,0,0,0,0,0,0,
0,0,38,57,57,0,57,57,57,0,47,
47,0,0,57,0,0,57,0,0,0,0,
0,0,0,57,0,0,57,41,57,0,0,
0,38,0,40,0,0,57,0,0,0,44,
40,44,0,57,0,0,57,57,49,0,0,
72,68,69,78,0,70,68,68,70,70,75,
73,0,0,69,0,0,0,0,0,0,76,
73,0,0,0,0,0,0,0,0,0,76,
74,78,0,0,0,0,0,83,0,0,76,
39,74,71,68,70,0,70,71,71,68,77,
0,0,57,57,57,0,57,51,57,0,43,
0,0,41,0,0,0,0,57,0,0,0,
44,0,57,40,57,0,0,43,0,44,0,
0,0,0,0,57,0,0,57,0,0,0,
0,0,57,57,57,0,0,57,0,0,40,
0,0,0,0,0,0,0,0,0,0,0
</data>
 </layer>
 <layer id="10" name="enemies" width="11" height="17">
  <data encoding="csv">
0,0,0,0,0,0,0,0,0,0,0,
0,0,0,0,0,0,0,0,0,0,0,
0,0,0,0,0,0,0,0,0,0,0,
0,0,0,0,0,88,0,0,0,0,0,
0,0,0,0,91,0,0,0,0,0,0,
0,0,0,0,0,0,0,0,0,0,0,
0,0,0,0,0,0,0,0,0,0,0,
0,94,0,0,0,0,0,86,0,0,0,
0,0,0,0,0,0,0,0,0,94,0,
0,0,0,86,0,0,0,0,87,0,0,
0,0,0,0,0,0,0,0,0,0,0,
0,0,0,0,0,0,0,0,0,0,0,
0,0,0,0,89,0,0,0,0,0,0,
0,0,0,0,0,0,0,0,0,0,0,
0,0,0,0,0,0,0,0,0,0,0,
0,0,0,0,0,0,0,0,0,0,0,
0,0,0,0,0,0,0,0,0,0,0
</data>
 </layer>
 <layer id="11" name="items" width="11" height="17">
  <data encoding="csv">
0,0,0,0,0,0,0,0,0,0,0,
0,0,0,0,0,0,0,0,0,0,0,
0,0,0,0,0,0,0,0,0,0,0,
0,0,0,0,0,0,0,0,0,0,0,
0,0,0,0,0,0,0,0,0,0,0,
0,0,0,0,0,0,0,0,0,0,0,
0,0,0,0,0,0,0,0,0,0,0,
0,0,0,0,0,0,0,0,0,0,0,
0,0,0,0,0,0,0,0,0,0,0,
0,0,0,0,0,0,0,0,0,0,0,
0,0,0,0,0,0,0,0,0,0,0,
0,0,0,0,0,0,0,0,0,0,0,
0,0,0,0,0,0,0,0,0,0,0,
0,0,0,0,0,0,0,0,0,0,0,
0,0,0,0,0,0,0,0,0,0,0,
0,0,0,0,0,0,0,0,0,0,0,
0,0,0,0,0,0,0,0,0,0,0
</data>
 </layer>
</map>
