<?xml version="1.0" encoding="UTF-8"?>
<map version="1.10" tiledversion="1.12.2" orientation="orthogonal" renderorder="left-down" width="11" height="40" tilewidth="16" tileheight="16" infinite="0" nextlayerid="14" nextobjectid="1">
 <editorsettings>
  <export target="map_13.json" format="json"/>
 </editorsettings>
 <tileset firstgid="1" source="bkgs.tsx"/>
 <tileset firstgid="19" source="gates.tsx"/>
 <tileset firstgid="37" source="walls.tsx"/>
 <tileset firstgid="85" source="enemies.tsx"/>
 <tileset firstgid="109" source="items.tsx"/>
 <layer id="12" name="bkgs" width="11" height="40">
  <data encoding="csv">
0,0,0,0,0,0,0,0,0,0,0,
0,0,0,0,0,0,0,0,0,0,0,
0,0,0,0,0,0,0,0,0,0,0,
0,0,0,0,0,0,0,0,0,0,0,
0,0,0,0,0,0,0,0,0,0,0,
0,0,0,0,0,0,0,0,0,0,0,
0,0,0,0,0,0,0,0,0,0,0,
0,0,0,0,0,0,0,0,0,0,0,
0,0,0,0,0,0,0,0,0,0,0,
0,0,0,0,0,0,0,0,0,0,0,
0,0,0,0,0,0,0,0,0,0,0,
0,0,0,0,0,0,0,0,0,0,0,
0,0,0,0,0,0,0,0,0,0,0,
0,0,0,0,0,0,0,0,0,0,0,
0,0,0,0,0,0,0,0,0,0,0,
0,0,0,0,0,0,0,0,0,0,0,
0,0,0,0,0,0,0,0,0,0,0,
0,0,0,0,0,0,0,0,0,0,0,
0,0,0,0,0,0,0,0,0,0,0,
0,0,0,0,0,0,0,0,0,0,0,
0,0,0,0,0,0,0,0,0,0,0,
0,0,0,0,0,0,0,0,0,0,0,
0,0,0,0,0,0,0,0,0,0,0,
0,0,0,0,0,0,0,0,0,0,0,
0,0,0,0,0,0,0,0,0,0,0,
0,0,0,0,0,0,0,0,0,0,0,
0,0,0,0,0,0,0,0,0,0,0,
0,0,0,0,0,0,0,0,0,0,0,
0,0,0,0,0,0,0,0,0,0,0,
0,0,0,0,0,0,0,0,0,0,0,
0,0,0,0,0,0,0,0,0,0,0,
0,0,0,0,0,0,0,0,0,0,0,
0,0,0,0,0,0,0,0,0,0,0,
0,0,0,0,0,0,0,0,0,0,0,
0,0,0,0,0,0,0,0,0,0,0,
0,0,0,0,0,0,0,0,0,0,0,
0,0,0,0,0,0,0,0,0,0,0,
0,0,0,0,0,0,0,0,0,0,0,
0,0,0,0,0,0,0,0,0,0,0,
0,0,0,0,0,0,0,0,0,0,0
</data>
 </layer>
 <layer id="13" name="gates" width="11" height="40">
  <data encoding="csv">
0,0,0,0,0,0,0,0,0,0,0,
0,0,0,0,0,0,0,0,0,0,0,
0,0,0,0,0,0,0,0,0,0,0,
0,0,0,0,0,0,0,0,0,0,0,
0,0,0,0,0,21,0,0,0,0,0,
0,0,0,0,0,0,0,0,0,0,0,
0,0,0,0,0,0,0,0,0,0,0,
0,0,0,0,0,0,0,0,0,0,0,
0,0,0,0,0,0,0,0,0,0,0,
0,0,0,0,0,0,0,0,0,0,0,
0,0,0,0,0,0,0,0,0,0,0,
0,0,0,0,0,0,0,0,0,0,0,
0,0,0,0,0,0,0,0,0,0,0,
0,0,0,0,0,0,0,0,0,0,0,
0,0,0,0,0,0,0,0,0,0,0,
0,0,0,0,0,0,0,0,0,0,0,
0,0,0,0,0,0,0,0,0,0,0,
0,0,0,0,0,0,0,0,0,0,0,
0,0,0,0,0,0,0,0,0,0,0,
0,0,0,0,0,0,0,0,0,0,0,
0,0,0,0,0,0,0,0,0,0,0,
0,0,0,0,0,0,0,0,0,0,0,
0,0,0,0,0,0,0,0,0,0,0,
0,0,0,0,0,0,0,0,0,0,0,
0,0,0,0,0,0,0,0,0,0,0,
0,0,0,0,0,0,0,0,0,0,0,
0,0,0,0,0,0,0,0,0,0,0,
0,0,0,0,0,0,0,0,0,0,0,
0,0,0,0,0,0,0,0,0,0,0,
0,0,0,0,0,0,0,0,0,0,0,
0,0,0,0,0,20,0,0,0,0,0,
0,0,0,0,0,0,0,0,0,0,0,
0,0,0,0,0,0,0,0,0,0,0,
0,0,0,0,0,0,0,0,0,0,0,
0,0,0,0,0,0,0,0,0,0,0,
0,0,0,0,0,0,0,0,0,0,0,
0,0,0,0,0,0,0,0,0,0,0,
0,0,0,0,0,0,0,0,0,0,0,
0,0,0,0,0,0,0,0,0,0,0,
0,0,0,0,0,0,0,0,0,0,0
</data>
 </layer>
 <layer id="1" name="walls" width="11" height="40">
  <data encoding="csv">
0,45,44,0,44,0,0,0,0,0,0,
0,72,68,68,75,0,72,68,68,75,40,
0,73,0,0,79,68,80,0,0,76,0,
0,73,0,0,0,0,0,0,0,76,0,
51,73,0,0,0,0,0,0,0,76,47,
0,73,78,0,0,0,0,0,81,76,47,
0,73,0,0,81,68,80,0,0,76,0,
47,73,0,0,0,0,0,0,0,76,0,
0,72,68,80,0,83,0,81,68,75,40,
43,73,0,0,0,68,0,0,0,76,0,
72,68,0,0,0,0,0,0,0,68,75,
73,0,0,0,69,69,69,0,0,0,76,
73,0,83,0,0,0,0,0,83,0,76,
73,0,69,0,0,0,0,0,69,0,76,
73,0,0,0,0,83,0,0,0,0,76,
73,78,0,83,0,82,0,83,0,79,76,
74,68,0,70,0,70,0,70,0,68,75,
53,0,0,46,0,0,0,52,0,56,56,
0,0,0,0,0,0,0,0,0,0,0,
57,0,0,39,0,0,0,52,0,0,0,
0,55,0,0,0,38,0,0,0,39,0,
0,0,50,0,47,47,56,0,56,0,0,
0,47,0,0,47,50,47,0,0,47,0,
0,0,0,57,0,0,0,47,0,0,0,
0,47,0,0,47,39,47,0,0,56,0,
47,39,0,0,0,0,0,0,0,39,47,
0,0,39,0,0,0,0,0,47,0,0,
0,0,46,0,0,0,0,0,0,46,38,
47,0,0,57,0,0,0,0,0,0,0,
0,0,0,0,0,0,0,0,0,0,40,
0,0,0,38,0,0,0,0,0,46,0,
0,0,0,0,44,51,0,0,43,0,0,
0,0,0,0,0,0,0,0,0,0,0,
0,0,0,0,0,45,0,0,0,0,0,
0,47,47,47,0,47,47,47,0,47,0,
0,47,0,0,0,47,0,47,0,47,0,
0,47,0,0,0,47,0,47,0,47,0,
0,47,0,47,0,47,0,47,0,0,0,
0,47,47,47,0,47,47,47,0,47,0,
0,0,0,0,0,0,0,0,0,0,0
</data>
 </layer>
 <layer id="10" name="enemies" width="11" height="40">
  <data encoding="csv">
0,0,0,0,0,0,0,0,0,0,0,
0,0,0,0,0,0,0,0,0,0,0,
0,0,0,0,0,0,0,0,0,0,0,
0,0,0,0,0,0,0,0,0,0,0,
0,0,0,0,0,0,0,0,0,0,0,
0,0,0,0,0,0,0,0,0,0,0,
0,0,0,0,0,0,0,0,0,0,0,
0,0,0,0,0,0,0,0,0,0,0,
0,0,0,0,0,0,0,0,0,0,0,
0,0,0,0,0,0,0,0,0,0,0,
0,0,0,0,0,0,0,0,0,0,0,
0,0,0,87,0,0,0,87,0,0,0,
0,0,0,0,0,0,0,0,0,0,0,
0,0,0,0,0,86,0,0,0,0,0,
0,0,0,0,0,0,0,0,0,0,0,
0,0,0,0,0,0,0,0,0,0,0,
0,0,0,0,0,0,0,0,0,0,0,
0,0,0,0,0,0,0,0,0,0,0,
0,0,86,0,0,0,0,0,86,0,0,
0,0,0,0,0,0,0,0,0,0,0,
0,0,0,0,0,0,0,0,0,0,0,
0,0,0,0,0,0,0,0,0,0,0,
0,0,0,0,0,0,0,0,0,0,0,
0,0,0,0,0,0,0,0,0,0,0,
0,0,0,0,0,0,0,0,0,0,0,
0,0,0,0,0,0,0,0,0,0,0,
0,0,0,0,0,0,0,0,0,0,0,
0,0,0,0,0,0,0,0,0,0,0,
0,0,0,0,0,0,0,0,0,0,0,
0,0,0,0,0,0,0,0,0,0,0,
0,0,0,0,0,0,0,0,0,0,0,
0,0,0,0,0,0,0,0,0,0,0,
0,0,0,0,0,0,0,0,0,0,0,
0,0,0,0,0,0,0,0,0,0,0,
0,0,0,0,0,0,0,0,0,0,0,
0,0,0,0,0,0,0,0,0,0,0,
0,0,0,0,0,0,0,0,0,0,0,
0,0,0,0,0,0,0,0,0,0,0,
0,0,0,0,0,0,0,0,0,0,0,
88,0,0,0,0,0,0,0,0,0,89
</data>
 </layer>
 <layer id="11" name="items" width="11" height="40">
  <data encoding="csv">
0,0,0,0,0,0,0,0,0,0,0,
0,0,0,0,0,0,0,0,0,0,0,
0,0,110,110,0,0,0,110,110,0,0,
0,0,110,110,0,0,0,110,110,0,0,
0,0,110,110,0,0,0,110,110,0,0,
0,0,0,110,0,0,0,110,0,0,0,
0,0,110,110,0,0,0,110,110,0,0,
0,0,110,110,110,110,110,110,110,0,0,
0,0,0,0,110,0,110,0,0,0,0,
0,0,110,110,110,0,110,110,110,0,0,
0,0,110,0,110,110,110,0,110,0,0,
0,110,110,0,0,0,0,0,110,110,0,
0,110,0,0,110,110,110,0,0,110,0,
0,110,0,0,0,0,0,0,0,110,0,
0,110,110,110,110,0,110,110,110,110,0,
0,0,110,0,110,0,110,0,110,0,0,
0,0,110,0,110,0,110,0,110,0,0,
0,0,0,0,0,0,0,0,0,0,0,
0,0,0,0,0,0,0,0,0,0,0,
0,0,0,0,0,0,0,0,0,0,0,
0,0,0,110,0,0,0,110,0,0,0,
0,0,0,110,0,0,0,110,0,0,0,
0,0,110,110,0,0,0,110,110,0,0,
0,0,110,0,0,0,0,0,110,0,0,
0,0,110,0,0,0,0,0,110,0,0,
0,0,110,110,110,110,110,110,110,0,0,
0,0,0,0,0,110,0,0,0,0,0,
0,0,0,0,0,110,0,0,0,0,0,
0,0,0,0,0,110,0,0,0,0,0,
0,0,0,0,0,110,0,0,0,0,0,
0,0,0,0,0,0,0,0,0,0,0,
0,0,0,0,0,0,0,0,0,0,0,
0,0,0,0,0,0,0,0,0,0,0,
0,0,0,0,0,0,0,0,0,0,0,
0,0,0,0,0,0,0,0,0,0,0,
0,0,0,0,0,0,0,0,0,0,0,
0,0,0,0,0,0,0,0,0,0,0,
0,0,0,0,0,0,0,0,0,0,0,
0,0,0,0,0,0,0,0,0,0,0,
0,0,0,0,0,0,0,0,0,0,0
</data>
 </layer>
</map>
