<?xml version="1.0" encoding="UTF-8"?>
<map version="1.10" tiledversion="1.12.2" orientation="orthogonal" renderorder="left-down" width="11" height="40" tilewidth="16" tileheight="16" infinite="0" nextlayerid="14" nextobjectid="1">
 <editorsettings>
  <export target="map_12.json" format="json"/>
 </editorsettings>
 <tileset firstgid="1" source="bkgs.tsx"/>
 <tileset firstgid="19" source="gates.tsx"/>
 <tileset firstgid="37" source="walls.tsx"/>
 <tileset firstgid="85" source="enemies.tsx"/>
 <tileset firstgid="109" source="items.tsx"/>
 <layer id="12" name="bkgs" width="11" height="40">
  <data encoding="csv">
0,0,0,0,0,0,0,0,0,0,0,
0,0,0,0,0,0,0,0,0,0,0,
0,0,0,0,0,0,0,0,0,0,0,
0,0,0,0,0,0,0,0,0,0,0,
0,0,0,0,0,0,0,0,0,0,0,
0,0,0,0,0,0,0,0,0,0,0,
0,0,0,0,0,0,0,0,0,0,0,
0,0,0,0,0,0,0,0,0,0,0,
0,0,0,0,0,0,0,0,0,0,0,
0,0,0,0,0,0,0,0,0,0,0,
0,0,0,0,0,0,0,0,0,0,0,
0,0,0,0,0,0,0,0,0,0,0,
0,0,0,0,0,0,0,0,0,0,0,
0,0,0,0,0,0,0,0,0,0,0,
0,0,0,0,0,0,0,0,0,0,0,
0,0,0,0,0,0,0,0,0,0,0,
0,0,0,0,0,0,0,0,0,0,0,
0,0,0,0,0,0,0,0,0,0,0,
0,0,0,0,0,0,0,0,0,0,0,
0,0,0,0,0,0,0,0,0,0,0,
0,0,0,0,0,0,0,0,0,0,0,
0,0,0,0,0,0,0,0,0,0,0,
0,0,0,0,0,0,0,0,0,0,0,
0,0,0,0,0,0,0,0,0,0,0,
0,0,0,0,0,0,0,0,0,0,0,
0,0,0,0,0,0,0,0,0,0,0,
0,0,0,0,0,0,0,0,0,0,0,
0,0,0,0,0,0,0,0,0,0,0,
0,0,0,0,0,0,0,0,0,0,0,
0,0,0,0,0,0,0,0,0,0,0,
0,0,0,0,0,0,0,0,0,0,0,
0,0,0,0,0,0,0,0,0,0,0,
0,0,0,0,0,0,0,0,0,0,0,
0,0,0,0,0,0,0,0,0,0,0,
0,0,0,0,0,0,0,0,0,0,0,
0,0,0,0,0,0,0,0,0,0,0,
0,0,0,0,0,0,0,0,0,0,0,
0,0,0,0,0,0,0,0,0,0,0,
0,0,0,0,0,0,0,0,0,0,0,
0,0,0,0,0,0,0,0,0,0,0
</data>
 </layer>
 <layer id="13" name="gates" width="11" height="40">
  <data encoding="csv">
0,0,0,0,0,0,0,0,0,0,0,
0,0,0,0,0,0,0,0,0,0,0,
0,0,0,0,0,0,0,21,0,0,0,
0,0,0,0,0,0,0,0,0,0,0,
0,0,0,0,0,0,0,0,0,0,0,
0,0,0,0,0,0,0,0,0,0,0,
0,0,0,0,0,0,0,0,0,0,0,
0,0,0,0,0,0,0,0,0,0,0,
0,0,0,0,0,0,0,0,0,0,0,
0,0,0,0,0,0,0,0,0,0,0,
0,0,0,0,0,0,0,0,0,0,0,
0,0,0,0,0,0,0,0,0,0,0,
0,0,0,0,0,0,0,0,0,0,0,
0,0,0,0,0,0,0,0,0,0,0,
0,0,0,0,0,0,0,0,0,0,0,
0,0,0,0,0,0,0,0,0,0,0,
0,0,0,0,0,0,0,0,0,0,0,
0,0,0,0,0,0,0,0,0,0,0,
0,0,0,0,0,0,0,0,0,0,0,
0,0,0,0,0,0,0,0,0,0,0,
0,0,0,0,0,0,0,0,0,0,0,
0,0,0,0,0,0,0,0,0,0,0,
0,0,0,0,0,0,0,0,0,0,0,
0,0,0,0,0,0,0,0,0,0,0,
0,0,0,0,0,0,0,0,0,0,0,
0,0,0,0,0,0,0,0,0,0,0,
0,0,0,0,0,0,0,0,0,0,0,
0,0,0,0,0,0,0,0,0,0,0,
0,0,0,0,0,0,0,0,0,0,0,
0,0,0,0,0,0,0,0,0,0,0,
0,0,0,0,0,0,0,0,0,0,0,
0,0,0,20,0,0,0,0,0,0,0,
0,0,0,0,0,0,0,0,0,0,0,
0,0,0,0,0,0,0,0,0,0,0,
0,0,0,0,0,0,0,0,0,0,0,
0,0,0,0,0,0,0,0,0,0,0,
0,0,0,0,0,0,0,0,0,0,0,
0,0,0,0,0,0,0,0,0,0,0,
0,0,0,0,0,0,0,0,0,0,0,
0,0,0,0,0,0,0,0,0,0,0
</data>
 </layer>
 <layer id="1" name="walls" width="11" height="40">
  <data encoding="csv">
0,45,44,0,44,0,0,0,0,0,0,
0,0,0,0,0,0,72,70,70,75,40,
0,72,68,69,68,71,68,0,0,76,0,
0,73,0,0,0,0,0,0,0,76,0,
51,73,0,81,68,68,68,69,68,76,47,
0,73,0,68,69,68,78,0,0,76,47,
0,73,0,0,0,0,0,0,0,76,0,
47,73,68,68,70,69,68,83,0,76,0,
0,73,0,0,0,0,0,82,0,76,40,
43,73,0,79,0,70,70,68,0,76,0,
0,73,0,0,0,0,0,0,0,76,0,
0,73,0,81,78,0,81,68,68,77,52,
0,73,0,76,73,0,76,0,0,0,0,
72,68,0,68,71,0,68,69,68,75,0,
73,0,0,0,0,0,0,0,0,76,0,
73,0,0,0,83,0,81,78,0,68,75,
73,0,81,68,82,0,76,73,0,0,76,
73,0,76,0,73,0,76,73,0,0,76,
73,0,81,70,68,0,68,69,70,68,76,
73,0,82,0,0,0,0,0,0,0,76,
73,0,82,0,83,0,83,0,83,0,76,
73,0,82,0,0,0,82,0,82,0,76,
73,0,82,0,83,0,82,0,82,0,76,
73,0,82,0,0,0,82,0,82,0,76,
73,0,81,68,68,68,82,0,81,68,77,
73,0,81,68,0,68,0,0,76,0,47,
73,0,0,0,0,0,83,0,76,0,0,
74,68,68,78,0,0,0,0,76,44,38,
47,0,47,74,68,68,78,0,76,39,0,
0,0,0,0,0,47,73,0,76,0,40,
0,0,72,68,69,68,71,0,76,47,0,
0,0,73,0,0,0,0,0,76,0,0,
0,0,74,68,68,68,68,68,77,0,0,
0,0,0,0,0,0,0,0,0,0,0,
0,47,47,47,0,47,47,47,0,47,0,
0,47,0,0,0,47,0,47,0,47,0,
0,47,0,0,0,47,0,47,0,47,0,
0,47,0,47,0,47,0,47,0,0,0,
0,47,47,47,0,47,47,47,0,47,0,
0,0,0,0,0,0,0,0,0,0,0
</data>
 </layer>
 <layer id="10" name="enemies" width="11" height="40">
  <data encoding="csv">
0,0,0,0,0,0,0,0,0,0,0,
0,0,0,0,0,0,0,0,0,0,0,
0,0,0,0,0,0,0,0,0,0,0,
0,0,0,0,0,0,0,0,0,0,0,
0,0,0,0,0,0,0,0,0,0,0,
0,0,0,0,0,0,0,89,0,0,0,
0,0,0,0,0,0,0,0,0,0,0,
0,0,0,0,0,0,0,0,0,0,0,
0,0,0,0,0,0,0,0,0,0,0,
0,0,0,0,87,0,0,0,0,0,0,
0,0,0,0,0,0,0,0,0,0,0,
0,0,0,0,0,0,0,0,0,0,0,
0,0,0,0,0,0,0,0,0,0,0,
0,0,0,0,0,0,0,0,0,0,0,
0,0,0,0,0,0,0,0,0,0,0,
0,0,0,0,0,0,0,0,0,0,0,
0,0,0,0,0,0,0,0,0,0,0,
0,0,0,0,0,0,0,0,0,88,0,
0,0,0,0,0,0,0,0,0,0,0,
0,0,0,0,0,0,0,0,0,0,0,
0,0,0,0,0,0,0,0,0,0,0,
0,0,0,0,86,0,0,0,0,0,0,
0,0,0,0,0,0,0,0,0,0,0,
0,0,0,0,0,88,0,0,0,0,0,
0,0,0,0,0,0,0,0,0,0,0,
0,0,0,0,87,0,86,0,0,0,0,
0,0,0,0,0,0,0,0,0,0,0,
0,0,0,0,0,0,0,0,0,0,0,
0,0,0,0,0,0,0,0,0,0,0,
0,0,0,0,0,0,0,0,0,0,0,
0,0,0,0,0,0,0,0,0,0,0,
0,0,0,0,0,0,0,0,0,0,0,
0,0,0,0,0,0,0,0,0,0,0,
0,0,0,0,0,0,0,0,0,0,0,
0,0,0,0,0,0,0,0,0,0,0,
0,0,0,0,0,0,0,0,0,0,0,
0,0,0,0,0,0,0,0,0,0,0,
0,0,0,0,0,0,0,0,0,0,0,
0,0,0,0,0,0,0,0,0,0,0,
0,0,0,0,0,0,0,0,0,0,0
</data>
 </layer>
 <layer id="11" name="items" width="11" height="40">
  <data encoding="csv">
0,0,0,0,0,0,0,0,0,0,0,
0,0,0,0,0,0,0,0,0,0,0,
0,0,0,0,0,0,0,0,110,0,0,
0,0,110,110,110,110,110,110,110,0,0,
0,0,110,0,0,0,0,0,0,0,0,
0,0,110,0,0,0,0,110,110,0,0,
0,0,110,110,110,110,110,110,110,0,0,
0,0,0,0,0,0,0,0,110,0,0,
0,0,110,110,110,110,110,0,110,0,0,
0,0,110,0,0,0,0,0,110,0,0,
0,0,110,110,110,110,110,110,110,0,0,
0,0,110,0,0,110,0,0,0,0,0,
0,0,110,0,0,110,0,0,0,0,0,
0,0,110,0,0,110,0,0,0,0,0,
0,110,110,110,110,110,110,110,110,0,0,
0,110,110,110,0,110,0,0,110,0,0,
0,110,0,0,0,110,0,0,110,110,0,
0,110,0,0,0,110,0,0,110,110,0,
0,110,0,0,0,110,0,0,0,0,0,
0,110,0,110,110,110,110,110,110,110,0,
0,110,0,110,0,110,0,110,0,110,0,
0,110,0,110,0,110,0,110,0,110,0,
0,110,0,110,0,110,0,110,0,110,0,
0,110,0,110,110,110,0,110,0,110,0,
0,110,0,0,0,0,0,110,0,0,0,
0,110,0,0,0,0,0,110,0,0,0,
0,110,110,110,110,110,0,110,0,0,0,
0,0,0,0,110,110,110,110,0,0,0,
0,0,0,0,0,0,0,110,0,0,0,
0,0,0,0,0,0,0,110,0,0,0,
0,0,0,0,0,0,0,110,0,0,0,
0,0,0,0,110,110,110,110,0,0,0,
0,0,0,0,0,0,0,0,0,0,0,
0,0,0,0,0,0,0,0,0,0,0,
0,0,0,0,0,0,0,0,0,0,0,
0,0,0,0,0,0,0,0,0,0,0,
0,0,0,0,0,0,0,0,0,0,0,
0,0,0,0,0,0,0,0,0,0,0,
0,0,0,0,0,0,0,0,0,0,0,
0,0,0,0,0,0,0,0,0,0,0
</data>
 </layer>
</map>
