<?xml version="1.0" encoding="UTF-8"?>
<map version="1.10" tiledversion="1.12.2" orientation="orthogonal" renderorder="left-down" width="11" height="32" tilewidth="16" tileheight="16" infinite="0" nextlayerid="14" nextobjectid="1">
 <editorsettings>
  <export target="map_03.json" format="json"/>
 </editorsettings>
 <tileset firstgid="1" source="bkgs.tsx"/>
 <tileset firstgid="19" source="gates.tsx"/>
 <tileset firstgid="37" source="walls.tsx"/>
 <tileset firstgid="73" source="enemies.tsx"/>
 <tileset firstgid="97" source="items.tsx"/>
 <layer id="12" name="bkgs" width="11" height="32">
  <data encoding="csv">
0,0,0,0,0,0,0,0,0,0,0,
0,0,0,0,0,0,0,0,0,0,0,
0,0,0,0,0,0,0,0,0,0,0,
0,0,0,0,0,0,0,0,0,0,0,
0,0,0,0,0,0,0,0,0,0,0,
0,0,0,0,0,0,0,0,0,0,0,
0,0,0,0,0,0,0,0,0,0,0,
0,0,0,0,0,0,0,0,0,0,0,
0,0,0,0,0,0,0,0,0,0,0,
0,0,0,0,0,0,0,0,0,0,0,
0,0,0,0,0,0,0,0,0,0,0,
0,0,0,0,0,0,0,0,0,0,0,
0,0,0,0,0,0,0,0,0,0,0,
0,0,0,0,0,0,0,0,0,0,0,
0,0,0,0,0,0,0,0,0,0,0,
0,0,0,0,0,0,0,0,0,0,0,
0,0,0,0,0,0,0,0,0,0,0,
0,0,0,0,0,0,0,0,0,0,0,
0,0,0,0,0,0,0,0,0,0,0,
0,0,0,0,0,0,0,0,0,0,0,
0,0,0,0,0,0,0,0,0,0,0,
0,0,0,0,0,0,0,0,0,0,0,
0,0,0,0,0,0,0,0,0,0,0,
0,0,0,0,0,0,0,0,0,0,0,
0,0,0,0,0,0,0,0,0,0,0,
0,0,0,0,0,0,0,0,0,0,0,
0,0,0,0,0,0,0,0,0,0,0,
0,0,0,0,0,0,0,0,0,0,0,
0,0,0,0,0,0,0,0,0,0,0,
0,0,0,0,0,0,0,0,0,0,0,
0,0,0,0,0,0,0,0,0,0,0,
0,0,0,0,0,0,0,0,0,0,0
</data>
 </layer>
 <layer id="13" name="gates" width="11" height="32">
  <data encoding="csv">
0,0,0,0,0,0,0,0,0,0,0,
0,0,0,0,0,0,0,0,0,0,0,
0,0,0,0,0,0,0,0,0,0,0,
0,0,0,0,21,0,0,0,0,0,0,
0,0,0,0,0,0,0,0,0,0,0,
0,0,0,0,0,0,0,0,0,0,0,
0,0,0,0,0,0,0,0,0,0,0,
0,0,0,0,0,0,0,0,0,0,0,
0,0,0,0,0,0,0,0,0,0,0,
0,0,0,0,0,0,0,0,0,0,0,
0,0,0,0,0,0,0,0,0,0,0,
0,0,0,0,0,0,0,0,0,0,0,
0,0,0,0,0,0,0,0,0,0,0,
0,0,0,0,0,0,0,0,0,0,0,
0,0,0,0,0,0,0,0,0,0,0,
0,0,0,0,0,0,0,0,0,0,0,
0,0,0,0,0,0,0,0,0,0,0,
0,0,0,0,0,0,0,0,0,0,0,
0,0,0,0,0,0,0,0,0,0,0,
0,0,0,0,0,0,0,0,0,0,0,
0,0,0,0,0,0,0,0,0,0,0,
0,0,0,0,0,0,0,0,0,0,0,
0,0,0,0,0,0,0,0,0,0,0,
0,0,0,0,0,0,0,0,0,0,0,
0,0,0,0,0,0,0,0,0,0,0,
0,0,0,0,0,0,0,0,0,0,0,
0,0,0,0,0,20,0,0,0,0,0,
0,0,0,0,0,0,0,0,0,0,0,
0,0,0,0,0,0,0,0,0,0,0,
0,0,0,0,0,0,0,0,0,0,0,
0,0,0,0,0,0,0,0,0,0,0,
0,0,0,0,0,0,0,0,0,0,0
</data>
 </layer>
 <layer id="1" name="walls" width="11" height="32">
  <data encoding="csv">
47,56,56,56,44,56,56,49,56,56,43,
56,47,0,0,0,0,0,0,0,44,56,
48,0,0,56,49,49,44,56,0,56,56,
56,0,56,47,0,0,0,0,0,48,44,
56,0,0,52,56,0,52,0,0,0,56,
47,56,0,56,0,0,47,0,55,0,44,
56,0,0,0,0,0,56,0,0,0,56,
46,52,46,46,52,0,56,0,46,46,46,
46,0,0,0,0,0,46,0,0,0,52,
46,0,49,0,56,46,53,46,56,0,46,
39,0,46,0,0,0,0,0,44,0,44,
48,0,0,0,56,0,49,0,46,0,46,
46,46,0,56,56,0,46,0,0,0,56,
46,0,0,0,0,0,53,46,56,46,56,
42,47,0,48,0,0,0,0,0,0,56,
46,0,0,46,46,0,46,46,0,56,56,
46,0,0,0,0,0,0,46,0,0,56,
46,50,46,46,49,46,0,54,44,0,56,
46,0,0,0,0,0,0,0,0,0,56,
46,0,51,48,46,48,0,46,54,46,44,
46,0,0,0,0,0,0,51,46,46,46,
46,50,0,48,46,44,0,46,44,47,56,
46,56,0,0,0,0,0,0,0,44,44,
46,57,0,46,54,0,38,39,0,39,47,
46,0,0,0,56,0,0,38,0,0,44,
46,0,54,56,56,0,39,47,0,38,47,
46,0,0,0,0,0,38,56,0,0,46,
54,47,57,46,44,56,0,0,0,50,57,
47,0,0,51,38,49,0,45,0,0,57,
47,42,0,0,0,0,0,0,0,42,47,
44,47,54,0,0,54,40,0,43,44,54,
57,47,46,38,47,44,44,47,44,44,47
</data>
 </layer>
 <layer id="10" name="enemies" width="11" height="32">
  <data encoding="csv">
0,0,0,0,0,0,0,0,0,0,0,
0,0,0,0,0,0,0,0,0,0,0,
0,0,0,0,0,0,0,0,0,0,0,
0,0,0,0,0,0,0,0,0,0,0,
0,0,0,0,0,0,0,0,0,0,0,
0,0,0,0,0,0,0,0,0,0,0,
0,0,0,0,0,0,0,0,0,0,0,
0,0,0,0,0,0,0,0,0,0,0,
0,0,0,0,0,0,0,0,0,0,0,
0,0,0,0,0,0,0,0,0,0,0,
0,0,0,0,0,0,0,0,0,0,0,
0,0,0,0,0,0,0,0,0,0,0,
0,0,0,0,0,0,0,0,0,0,0,
0,0,0,0,0,0,0,0,0,0,0,
0,0,0,0,0,0,0,0,0,0,0,
0,0,0,0,0,0,0,0,0,0,0,
0,0,0,0,0,0,0,0,0,0,0,
0,0,0,0,0,0,0,0,0,0,0,
0,0,0,0,0,0,0,0,0,0,0,
0,0,0,0,0,0,0,0,0,0,0,
0,0,0,0,0,0,0,0,0,0,0,
0,0,0,0,0,0,0,0,0,0,0,
0,0,0,0,0,0,0,0,0,0,0,
0,0,0,0,0,0,0,0,0,0,0,
0,0,0,74,0,0,0,0,0,75,0,
0,0,0,0,0,0,0,0,0,0,0,
0,0,0,0,0,0,0,0,0,76,0,
0,0,0,0,0,0,0,0,0,0,0,
0,0,77,0,0,0,0,0,0,0,0,
0,0,0,0,0,0,0,0,0,0,0,
0,0,0,0,0,0,0,0,0,0,0,
0,0,0,0,0,0,0,0,0,0,0
</data>
 </layer>
 <layer id="11" name="items" width="11" height="32">
  <data encoding="csv">
0,0,0,0,0,0,0,0,0,0,0,
0,0,0,0,0,0,0,0,0,0,0,
0,0,0,0,0,0,0,0,0,0,0,
0,0,0,0,0,98,0,0,0,0,0,
0,0,0,0,0,98,0,0,0,0,0,
0,0,0,0,0,98,0,0,0,0,0,
0,0,0,0,0,98,0,0,0,0,0,
0,0,0,0,0,98,0,0,0,0,0,
0,0,0,98,98,98,0,0,0,0,0,
0,0,0,98,0,0,0,0,0,0,0,
0,0,0,98,0,0,0,0,0,0,0,
0,0,98,98,0,0,0,0,0,0,0,
0,0,98,0,0,0,0,0,0,0,0,
0,0,98,0,0,0,0,0,0,0,0,
0,0,98,0,0,0,0,0,0,0,0,
0,98,98,0,0,0,0,0,0,0,0,
0,98,98,98,98,98,98,0,0,0,0,
0,0,0,0,0,0,98,0,0,0,0,
0,0,0,0,0,0,98,0,0,0,0,
0,0,0,0,0,0,98,0,0,0,0,
0,0,98,98,98,98,98,0,0,0,0,
0,0,98,0,0,0,0,0,0,0,0,
0,0,98,98,98,98,0,0,0,0,0,
0,0,0,0,0,98,0,0,0,0,0,
0,0,0,0,0,98,0,0,0,0,0,
0,0,0,0,0,98,0,0,0,0,0,
0,0,0,0,0,0,0,0,0,0,0,
0,0,0,0,0,0,0,0,0,0,0,
0,0,0,0,0,0,0,0,0,0,0,
0,0,0,0,0,0,0,0,0,0,0,
0,0,0,0,0,0,0,0,0,0,0,
0,0,0,0,0,0,0,0,0,0,0
</data>
 </layer>
</map>
