<?xml version="1.0" encoding="UTF-8"?>
<map version="1.10" tiledversion="1.12.2" orientation="orthogonal" renderorder="left-down" width="11" height="32" tilewidth="16" tileheight="16" infinite="0" nextlayerid="14" nextobjectid="1">
 <editorsettings>
  <export target="map_07.json" format="json"/>
 </editorsettings>
 <tileset firstgid="1" source="bkgs.tsx"/>
 <tileset firstgid="19" source="gates.tsx"/>
 <tileset firstgid="37" source="walls.tsx"/>
 <tileset firstgid="85" source="enemies.tsx"/>
 <tileset firstgid="109" source="items.tsx"/>
 <layer id="12" name="bkgs" width="11" height="32" visible="0">
  <data encoding="csv">
0,0,0,0,0,0,0,0,0,0,0,
0,0,0,0,0,0,0,0,0,0,0,
0,0,0,0,0,0,0,0,0,0,0,
0,0,0,0,0,0,0,0,0,0,0,
0,0,0,0,0,0,0,0,0,0,0,
0,0,0,0,0,0,0,0,0,0,0,
0,0,0,0,0,0,0,0,0,0,0,
0,0,0,0,0,0,0,0,0,0,0,
0,0,0,0,0,0,0,0,0,0,0,
0,0,0,0,0,0,0,0,0,0,0,
0,0,0,0,0,0,0,0,0,0,0,
0,0,0,0,0,0,0,0,0,0,0,
0,0,0,0,0,0,0,0,0,0,0,
0,0,0,0,0,0,0,0,0,0,0,
0,0,0,0,0,0,0,0,0,0,0,
0,0,0,0,0,0,0,0,0,0,0,
0,0,0,0,0,0,0,0,0,0,0,
0,0,0,0,0,0,0,0,0,0,0,
0,0,0,0,0,0,0,0,0,0,0,
0,0,0,0,0,0,0,0,0,0,0,
0,0,0,0,0,0,0,0,0,0,0,
0,0,0,0,0,0,0,0,0,0,0,
0,0,0,0,0,0,0,0,0,0,0,
0,0,0,0,0,0,0,0,0,0,0,
0,0,0,0,0,0,0,0,0,0,0,
0,0,0,0,0,0,0,0,0,0,0,
0,0,0,0,0,0,0,0,0,0,0,
0,0,0,0,0,0,0,0,0,0,0,
0,0,0,0,0,0,0,0,0,0,0,
0,0,0,0,0,0,0,0,0,0,0,
0,0,0,0,0,0,0,0,0,0,0,
0,0,0,0,0,0,0,0,0,0,0
</data>
 </layer>
 <layer id="13" name="gates" width="11" height="32">
  <data encoding="csv">
0,0,0,0,0,0,0,0,0,0,0,
0,0,0,0,0,0,0,0,0,0,0,
0,0,0,0,0,0,0,0,0,0,0,
0,0,0,0,0,0,0,0,0,0,0,
0,0,0,0,0,0,0,0,0,0,0,
0,0,0,0,0,0,0,0,0,0,0,
0,0,0,0,0,0,0,0,0,0,0,
0,0,0,0,0,0,0,0,0,0,0,
0,0,0,0,0,21,0,0,0,0,0,
0,0,0,0,0,0,0,0,0,0,0,
0,0,0,0,0,0,0,0,0,0,0,
0,0,0,0,0,0,0,0,0,0,0,
0,0,0,0,0,0,0,0,0,0,0,
0,0,0,0,0,0,0,0,0,0,0,
0,0,0,0,0,0,0,0,0,0,0,
0,0,0,0,0,0,0,0,0,0,0,
0,0,0,0,0,0,0,0,0,0,0,
0,0,0,0,0,0,0,0,0,0,0,
0,0,0,0,0,0,0,0,0,0,0,
0,0,0,0,0,0,0,0,0,0,0,
0,0,0,0,0,0,0,0,0,0,0,
0,0,0,0,0,0,0,0,0,0,0,
0,0,0,0,0,0,0,0,0,0,0,
0,0,0,0,0,0,0,0,0,0,0,
0,0,0,0,0,0,0,0,0,0,0,
0,0,0,0,0,0,0,0,0,0,0,
0,0,0,0,0,0,0,0,0,0,0,
0,0,0,0,0,0,0,0,0,0,0,
0,0,0,0,0,20,0,0,0,0,0,
0,0,0,0,0,0,0,0,0,0,0,
0,0,0,0,0,0,0,0,0,0,0,
0,0,0,0,0,0,0,0,0,0,0
</data>
 </layer>
 <layer id="1" name="walls" width="11" height="32">
  <data encoding="csv">
0,42,47,47,47,47,44,47,47,47,0,
47,0,0,0,44,39,47,0,0,0,47,
49,0,0,0,0,0,0,0,0,0,47,
47,47,0,0,0,0,0,0,0,51,47,
0,0,49,0,0,0,0,0,47,47,0,
0,0,47,0,0,0,0,0,53,0,0,
0,47,51,0,0,0,0,0,47,47,0,
47,0,0,0,0,45,0,0,0,0,47,
47,0,47,0,0,0,0,0,47,0,47,
47,0,47,49,47,49,47,47,52,0,47,
47,0,0,0,0,0,0,0,0,0,47,
0,47,47,47,0,0,0,47,47,47,0,
0,43,0,0,0,0,0,0,0,47,0,
0,47,0,0,0,0,0,0,0,52,0,
47,0,0,0,0,41,0,0,0,0,47,
47,0,0,0,0,0,0,0,0,0,49,
48,0,47,46,40,46,48,47,39,0,47,
47,0,0,0,0,0,0,0,0,0,44,
47,44,47,0,47,47,39,47,46,47,46,
47,0,0,0,44,0,0,0,0,0,0,
44,0,0,47,0,0,0,0,45,0,0,
47,0,0,46,41,46,49,0,0,0,0,
51,0,0,0,0,0,0,44,47,0,0,
47,47,47,0,0,0,0,0,0,47,0,
47,0,0,0,0,0,0,0,0,47,0,
53,46,46,0,47,46,44,46,46,0,0,
0,0,43,0,0,0,0,0,0,47,0,
0,0,46,0,0,0,0,0,0,47,0,
0,0,46,0,0,0,0,0,0,39,52,
0,0,0,39,0,46,0,0,47,0,0,
46,0,0,0,0,0,0,0,0,56,0,
0,0,0,0,0,0,0,0,0,0,0
</data>
 </layer>
 <layer id="10" name="enemies" width="11" height="32">
  <data encoding="csv">
0,0,0,0,0,0,0,0,0,0,0,
0,0,0,0,0,0,0,0,0,0,0,
0,0,0,0,0,0,0,0,0,0,0,
0,0,0,87,0,89,0,87,0,0,0,
0,0,0,0,0,0,0,0,0,0,0,
0,0,0,0,0,86,0,0,0,0,0,
0,0,0,0,0,0,0,0,0,0,0,
0,0,0,0,0,0,0,0,0,0,0,
0,0,0,0,0,0,0,0,0,0,0,
0,0,0,0,0,0,0,0,0,0,0,
0,0,0,0,0,0,0,0,0,0,0,
0,0,0,0,0,86,0,0,0,0,0,
0,0,0,0,0,0,0,0,0,0,0,
0,0,86,0,0,0,0,0,86,0,0,
0,0,0,0,0,0,0,0,0,0,0,
0,0,0,0,0,0,0,0,0,0,0,
0,0,0,0,0,0,0,0,0,0,0,
0,0,0,0,0,0,0,0,0,0,0,
0,0,0,0,0,0,0,0,0,0,0,
0,0,0,0,0,0,0,0,0,0,0,
0,0,87,0,0,0,0,0,0,0,0,
0,0,0,0,0,0,0,0,0,0,0,
0,0,0,0,0,0,0,0,0,0,0,
0,0,0,0,0,0,0,0,0,0,0,
0,0,0,0,0,0,0,0,0,0,0,
0,0,0,0,0,0,0,0,0,0,0,
0,0,0,0,0,0,0,0,0,0,0,
0,0,0,0,0,0,0,0,0,0,0,
0,0,0,0,0,0,0,0,0,0,0,
0,0,0,0,0,0,0,0,0,88,0,
0,0,0,0,0,0,0,0,0,0,0,
0,0,0,0,0,0,0,0,0,0,0
</data>
 </layer>
 <layer id="11" name="items" width="11" height="32">
  <data encoding="csv">
0,0,0,0,0,0,0,0,0,0,0,
0,110,110,110,0,0,0,110,110,110,0,
0,110,110,110,110,110,110,110,110,110,0,
0,0,0,0,110,0,110,0,0,0,0,
0,0,0,0,110,0,110,0,0,0,0,
0,0,0,0,110,0,110,0,0,0,0,
0,0,0,0,110,0,110,0,0,0,0,
0,110,110,110,110,0,110,110,110,110,0,
0,110,0,0,110,0,110,0,0,110,0,
0,110,0,0,0,0,0,0,0,110,0,
0,110,110,110,110,0,110,110,110,110,0,
0,0,0,0,110,0,110,0,0,0,0,
0,0,0,0,110,0,110,0,0,0,0,
0,0,0,0,110,0,110,0,0,0,0,
0,110,110,110,110,0,110,110,110,110,0,
0,110,0,0,110,110,110,0,0,110,0,
0,110,0,0,0,0,0,0,0,110,0,
0,110,110,110,110,110,110,110,110,110,0,
0,0,0,110,0,0,0,0,0,0,0,
0,110,110,110,0,0,0,0,0,0,0,
0,110,0,0,0,0,0,0,0,0,0,
0,110,0,0,0,0,0,0,0,0,0,
0,110,110,110,110,110,110,0,0,0,0,
0,0,0,110,0,0,0,110,110,0,0,
0,110,110,110,110,110,110,110,110,0,0,
0,0,0,110,0,0,0,0,0,0,0,
0,0,0,110,110,110,110,110,110,0,0,
0,0,0,110,0,110,0,0,110,0,0,
0,0,0,110,0,0,0,0,110,0,0,
0,0,0,0,0,0,0,0,0,0,0,
0,0,0,0,0,0,0,0,0,0,0,
0,0,0,0,0,0,0,0,0,0,0
</data>
 </layer>
</map>
