<?xml version="1.0" encoding="UTF-8"?>
<map version="1.10" tiledversion="1.12.2" orientation="orthogonal" renderorder="left-down" width="11" height="11" tilewidth="16" tileheight="16" infinite="0" nextlayerid="14" nextobjectid="1">
 <editorsettings>
  <export target="map_01.json" format="json"/>
 </editorsettings>
 <tileset firstgid="1" source="bkgs.tsx"/>
 <tileset firstgid="19" source="gates.tsx"/>
 <tileset firstgid="37" source="walls.tsx"/>
 <tileset firstgid="73" source="enemies.tsx"/>
 <tileset firstgid="91" source="items.tsx"/>
 <layer id="12" name="bkgs" width="11" height="11">
  <data encoding="csv">
0,0,0,0,0,0,0,0,0,0,0,
0,0,0,0,0,0,0,0,0,0,0,
0,0,0,0,0,0,0,0,0,0,0,
0,0,0,0,0,0,0,0,0,0,0,
0,0,0,0,0,0,0,0,0,0,0,
0,0,0,0,0,0,0,0,0,0,0,
0,0,0,0,0,0,0,0,0,0,0,
0,0,0,0,0,0,0,0,0,0,0,
0,0,0,0,0,0,0,0,0,0,0,
0,0,0,0,0,0,0,0,0,0,0,
0,0,0,0,0,0,0,0,0,0,0
</data>
 </layer>
 <layer id="13" name="gates" width="11" height="11">
  <data encoding="csv">
0,0,0,0,0,0,0,0,0,0,0,
0,0,0,0,0,0,0,0,0,0,0,
0,0,0,0,0,0,0,0,0,0,0,
0,0,0,0,0,0,0,0,0,0,0,
0,0,0,0,0,0,0,0,0,0,0,
0,0,0,0,0,20,0,0,0,0,0,
0,0,0,0,0,0,0,0,0,0,0,
0,0,0,0,0,0,0,0,0,0,0,
0,0,21,0,0,0,0,0,0,0,0,
0,0,0,0,0,0,0,0,0,0,0,
0,0,0,0,0,0,0,0,0,0,0
</data>
 </layer>
 <layer id="1" name="walls" width="11" height="11">
  <data encoding="csv">
0,38,0,0,47,54,47,46,44,47,56,
0,44,0,0,47,0,0,0,0,44,44,
0,57,0,0,47,0,38,39,0,39,47,
0,47,0,0,44,0,0,38,0,0,44,
0,38,0,0,52,0,39,47,0,38,47,
0,0,0,0,44,0,38,56,0,0,46,
54,47,57,46,44,56,0,0,0,50,57,
47,0,0,51,38,49,0,45,0,0,57,
47,42,0,0,0,0,0,0,0,42,47,
44,47,54,0,0,54,40,0,43,44,54,
57,47,46,38,47,44,44,47,44,44,47
</data>
 </layer>
 <layer id="10" name="enemies" width="11" height="11">
  <data encoding="csv">
0,0,0,0,0,0,0,0,0,0,0,
0,0,0,0,0,0,0,0,0,0,0,
0,0,0,0,0,0,0,0,0,0,0,
0,0,0,0,0,0,0,0,0,74,0,
0,0,0,0,0,0,0,0,0,0,0,
0,0,0,0,0,0,0,0,0,74,0,
0,0,0,0,0,0,0,0,0,0,0,
0,0,0,0,0,0,0,0,0,0,0,
0,0,0,0,0,0,0,0,0,0,0,
0,0,0,0,0,0,0,74,0,0,0,
0,0,0,0,0,0,0,0,0,0,0
</data>
 </layer>
 <layer id="11" name="items" width="11" height="11">
  <data encoding="csv">
0,0,0,0,0,0,0,0,0,0,0,
0,0,0,0,0,92,92,92,92,0,0,
0,0,0,0,0,92,0,0,92,0,0,
0,0,0,0,0,92,0,0,92,0,0,
0,0,0,0,0,92,0,0,92,0,0,
0,0,0,0,0,0,0,0,92,0,0,
0,0,0,0,0,0,0,0,92,0,0,
0,0,0,0,0,0,0,0,92,0,0,
0,0,0,92,92,92,92,92,92,0,0,
0,0,0,0,0,0,0,0,0,0,0,
0,0,0,0,0,0,0,0,0,0,0
</data>
 </layer>
</map>
