<?xml version="1.0" encoding="UTF-8"?>
<map version="1.10" tiledversion="1.12.2" orientation="orthogonal" renderorder="left-down" width="11" height="14" tilewidth="16" tileheight="16" infinite="0" nextlayerid="14" nextobjectid="1">
 <editorsettings>
  <export target="map_03.json" format="json"/>
 </editorsettings>
 <tileset firstgid="1" source="bkgs.tsx"/>
 <tileset firstgid="19" source="gates.tsx"/>
 <tileset firstgid="37" source="walls.tsx"/>
 <tileset firstgid="85" source="enemies.tsx"/>
 <tileset firstgid="109" source="items.tsx"/>
 <layer id="12" name="bkgs" width="11" height="14">
  <data encoding="csv">
0,0,0,0,0,0,0,0,0,0,0,
0,0,0,0,0,0,0,0,0,0,0,
0,0,0,0,0,0,0,0,0,0,0,
0,0,0,0,0,0,0,0,0,0,0,
0,0,0,0,0,0,0,0,0,0,0,
0,0,0,0,0,0,0,0,0,0,0,
0,0,0,0,0,0,0,0,0,0,0,
0,0,0,0,0,0,0,0,0,0,0,
0,0,0,0,0,0,0,0,0,0,0,
0,0,0,0,0,0,0,0,0,0,0,
0,0,0,0,0,0,0,0,0,0,0,
0,0,0,0,0,0,0,0,0,0,0,
0,0,0,0,0,0,0,0,0,0,0,
0,0,0,0,0,0,0,0,0,0,0
</data>
 </layer>
 <layer id="13" name="gates" width="11" height="14">
  <data encoding="csv">
0,0,0,0,0,0,0,0,0,0,0,
0,0,0,0,0,0,0,0,0,0,0,
0,0,0,0,0,0,0,0,0,0,0,
0,0,0,0,0,0,0,0,0,0,0,
0,0,0,0,0,0,0,0,0,0,0,
0,0,21,0,0,0,0,0,0,0,0,
0,0,0,0,0,0,0,0,0,0,0,
0,0,0,0,0,0,0,0,0,0,0,
0,0,0,0,0,0,0,0,0,0,0,
0,0,20,0,0,0,0,0,0,0,0,
0,0,0,0,0,0,0,0,0,0,0,
0,0,0,0,0,0,0,0,0,0,0,
0,0,0,0,0,0,0,0,0,0,0,
0,0,0,0,0,0,0,0,0,0,0
</data>
 </layer>
 <layer id="1" name="walls" width="11" height="14">
  <data encoding="csv">
0,0,0,0,0,0,0,0,0,0,0,
0,0,0,54,0,0,0,41,0,0,0,
0,0,54,0,0,46,0,0,0,0,0,
0,0,0,0,0,0,0,47,0,0,54,
0,72,68,70,70,69,71,75,44,0,0,
0,73,0,0,0,0,0,76,0,0,54,
0,74,68,78,70,69,0,79,71,75,0,
0,0,46,73,0,0,0,0,0,76,0,
0,72,70,71,68,69,0,79,68,77,0,
0,73,0,0,0,0,0,76,39,0,46,
46,74,68,70,68,68,71,77,0,0,52,
0,47,0,0,0,0,0,0,0,57,0,
0,0,0,0,0,0,0,0,0,0,0,
0,0,0,0,0,0,0,0,0,0,0
</data>
 </layer>
 <layer id="10" name="enemies" width="11" height="14">
  <data encoding="csv">
0,0,0,0,0,0,0,0,0,0,0,
0,0,0,0,0,0,0,0,0,0,0,
0,0,0,0,0,0,0,0,0,0,0,
0,0,0,0,0,0,0,0,0,0,0,
0,0,0,0,0,0,0,0,0,0,0,
0,0,0,0,0,0,0,0,0,0,0,
0,0,0,0,0,0,0,0,0,0,0,
0,0,0,0,0,0,0,0,86,0,0,
0,0,0,0,0,0,0,0,0,0,0,
0,0,0,0,0,0,0,0,0,0,0,
0,0,0,0,0,0,0,0,0,0,0,
0,0,0,0,0,0,0,0,0,0,0,
0,0,0,0,0,0,0,0,0,0,0,
0,0,0,0,0,0,0,0,0,0,0
</data>
 </layer>
 <layer id="11" name="items" width="11" height="14">
  <data encoding="csv">
0,0,0,0,0,0,0,0,0,0,0,
0,0,0,0,0,0,0,0,0,0,0,
0,0,0,0,0,0,0,0,0,0,0,
0,0,0,0,0,0,0,0,0,0,0,
0,0,0,0,0,0,0,0,0,0,0,
0,0,0,110,110,110,110,0,0,0,0,
0,0,0,0,0,0,110,0,0,0,0,
0,0,0,0,0,0,110,0,0,0,0,
0,0,0,0,0,0,110,0,0,0,0,
0,0,0,110,110,110,110,0,0,0,0,
0,0,0,0,0,0,0,0,0,0,0,
0,0,0,0,0,0,0,0,0,0,0,
0,0,0,0,0,0,0,0,0,0,0,
0,0,0,0,0,0,0,0,0,0,0
</data>
 </layer>
</map>
